ci/cil-mic.svg

<svg xmlns="http://www.w3.org/2000/svg" viewBox="0 0 512 512" height="1em" width="1em">
  <path fill="var(--ci-primary-color, currentColor)" d="M256 328a96.108 96.108 0 0 0 96-96V112a96 96 0 0 0-192 0v120a96.108 96.108 0 0 0 96 96Zm-64-216a64 64 0 0 1 128 0v120a64 64 0 0 1-128 0Z" class="ci-primary"/>
  <path fill="var(--ci-primary-color, currentColor)" d="M400 176v56c0 79.4-64.6 144-144 144s-144-64.6-144-144v-56H80v56c0 91.653 70.424 167.154 160 175.265V496h32v-88.735c89.576-8.111 160-83.612 160-175.265v-56Z" class="ci-primary"/>
</svg>

<svg xmlns="http://www.w3.org/2000/svg" viewBox="0 0 512 512" height="1em" width="1em">
  <path fill="var(--ci-primary-color, currentColor)" d="M256,328a96.108,96.108,0,0,0,96-96V112a96,96,0,0,0-192,0V232A96.108,96.108,0,0,0,256,328ZM192,112a64,64,0,0,1,128,0V232a64,64,0,0,1-128,0Z" class="ci-primary"/>
  <path fill="var(--ci-primary-color, currentColor)" d="M400,176v56c0,79.4-64.6,144-144,144S112,311.4,112,232V176H80v56c0,91.653,70.424,167.154,160,175.265V496h32V407.265C361.576,399.154,432,323.653,432,232V176Z" class="ci-primary"/>
</svg>
